!! 00000] TT[WS
!!!OTL: Mai cai
!!!ARE: Asia, China, Shanxi Lingqiu
!! Ethnic Group: Han
!! WII, 50 (2)
!!!SCT: J0469
!!!YEM: Copyright 1995, estate of Helmut Schaffrath.
**kern
*ICvox
*Ivox
!! 2+3 metric grouping
!! Mixed meters:  4/4; 5/4
*M5/4
*k[f#]
*G:
{8ee
8ee
8ee
8ee
8ff#
16ee
16b
2dd
=1
16ee
16gg
16ee
16dd
8b
8b
8dd
8b
2a}
=2
*M4/4
{8.a
16g
8a
8b
8dd
8b
8dd
8dd
=3
8f#
8e
4d
4dd
8b
8dd
=4
8a
8g
8f#
8e
2d}
=5
{16a
16g
16a
16g
16a
16g
16a
16b
16dd
16b
16dd
16b
4dd
=6
8.f#
16e
4d
4dd
8b
8dd
=7
8a
4g
8e
2d}
==
!!!AGN: Xiaodiao. Maimai, Qingge
!!!ONB: ESAC (Essen Associative Code) Database: CHINA
!!!AMT: irregular
!!!AIN: vox
!!!EED: Helmut Schaffrath
!!!EEV: 1.0
*-
